X: 34540
T: Ríl Zoë
R: reel
M: 4/4
K: Dmajor
f3d e3A|defd eAAA|f3d e3A|ABce Hd3e|
f3d e3A|defd eAAA|cdBc AGE2|ABce d3e|
dBcA dBcA|FGAB A3d|dBcA dBcA|decA d3e|
dBcB dBcA|FGAB AFGA|GABG ABcd|ecBA d4|
FAGE FDD2|dcBe A3G|FAGE FDDD|GFED E3A|
FAGE FDD2|dcBc A2Bc|dcBA dFGE|AGEA D2z2|
GFED EA,A,2|GFEF G3A|GFED EA,A,A,|FDEA D3E|
GFED EA,A,2|GFEF G3A|cdBc AGE2|ABce d3e|

